packages/kaspersky-hexa-ui-icons/src/iconsSVGs/16/Sort2.svg

<svg width="16" height="16" viewBox="0 0 16 16" fill="none" xmlns="http://www.w3.org/2000/svg">
<path fill-rule="evenodd" clip-rule="evenodd" d="M2.0166 4.0001C2.0166 3.64111 2.30762 3.3501 2.6666 3.3501H7.99993H13.3333C13.6923 3.3501 13.9833 3.64111 13.9833 4.0001C13.9833 4.35908 13.6923 4.6501 13.3333 4.6501H2.6666C2.30762 4.6501 2.0166 4.35908 2.0166 4.0001ZM2.0166 8.0001C2.0166 7.64111 2.30762 7.3501 2.6666 7.3501H10.6666C11.0256 7.3501 11.3166 7.64111 11.3166 8.0001C11.3166 8.35908 11.0256 8.6501 10.6666 8.6501H2.6666C2.30762 8.6501 2.0166 8.35908 2.0166 8.0001ZM2.0166 12.0001C2.0166 11.6411 2.30762 11.3501 2.6666 11.3501H7.99994C8.35892 11.3501 8.64994 11.6411 8.64994 12.0001C8.64994 12.3591 8.35892 12.6501 7.99994 12.6501H2.6666C2.30762 12.6501 2.0166 12.3591 2.0166 12.0001Z" fill="black"/>
</svg>

<svg xmlns="http://www.w3.org/2000/svg" width="16" height="16" fill="none" viewBox="0 0 16 16"><path fill="#000" fill-rule="evenodd" d="M2.0167 4a.65.65 0 0 1 .65-.65h10.6667a.65.65 0 1 1 0 1.3H2.6667a.65.65 0 0 1-.65-.65m0 4a.65.65 0 0 1 .65-.65h8a.65.65 0 1 1 0 1.3h-8a.65.65 0 0 1-.65-.65m0 4a.65.65 0 0 1 .65-.65h5.3334a.65.65 0 1 1 0 1.3H2.6667a.65.65 0 0 1-.65-.65"/></svg>
